modules/hawcons-filled/icons/icon-26-trash-can.svg

<?xml version="1.0" encoding="UTF-8" standalone="no"?>
<svg width="32px" height="32px" viewBox="0 0 32 32" version="1.1" xmlns="http://www.w3.org/2000/svg" xmlns:xlink="http://www.w3.org/1999/xlink" xmlns:sketch="http://www.bohemiancoding.com/sketch/ns">
    <!-- Generator: Sketch 3.0.3 (7891) - http://www.bohemiancoding.com/sketch -->
    <title>icon 26 trash can</title>
    <desc>Created with Sketch.</desc>
    <defs></defs>
    <g id="Page-1" stroke="none" stroke-width="1" fill="none" fill-rule="evenodd" sketch:type="MSPage">
        <g id="icon-26-trash-can" sketch:type="MSArtboardGroup" fill="#929292">
            <path d="M21,6 L25,6 L25,7 L8,7 L8,6 L12,6 L12,5 C12,3.88772964 12.8942627,3 13.9973917,3 L19.0026083,3 C20.1041422,3 21,3.8954305 21,5 L21,6 L21,6 Z M8,8 L8,26.9986131 C8,28.6562333 9.33396149,30 11.0001262,30 L21.9998738,30 C23.6567977,30 25,28.6569187 25,26.9986131 L25,8 L8,8 L8,8 Z M12,11 L12,27 L13,27 L13,11 L12,11 L12,11 Z M16,11 L16,27 L17,27 L17,11 L16,11 L16,11 Z M20,11 L20,27 L21,27 L21,11 L20,11 L20,11 Z M14.0029293,4 C13.4490268,4 13,4.44386482 13,5 L13,6 L20,6 L20,5 C20,4.44771525 19.5621186,4 18.9970707,4 L14.0029293,4 L14.0029293,4 Z" id="trash-can" sketch:type="MSShapeGroup"></path>
        </g>
    </g>
</svg>

<svg width="32" height="32" viewBox="0 0 32 32" xmlns="http://www.w3.org/2000/svg"><path d="M21 6h4v1H8V6h4V5c0-1.112.894-2 1.997-2h5.006A2 2 0 0 1 21 5v1zM8 8v18.999A2.995 2.995 0 0 0 11 30h11a3 3 0 0 0 3-3.001V8H8zm4 3v16h1V11h-1zm4 0v16h1V11h-1zm4 0v16h1V11h-1zm-5.997-7A.999.999 0 0 0 13 5v1h7V5c0-.552-.438-1-1.003-1h-4.994z" fill="#929292" fill-rule="evenodd"/></svg>
